X:1
T:This Endris Nyght, CM
T:This Endris Nyght, CM
T:15th Century English Carol
T:Public Domain Courtesy of the Cyber Hymnal™
C:15th Century English Carol
Z:Public Domain
Z:Courtesy of the Cyber Hymnal™
%%score ( 1 2 ) ( 3 4 )
L:1/8
Q:1/4=150
M:6/4
K:D
V:1 treble 
V:2 treble 
V:3 bass 
V:4 bass 
V:1
 D2 | [DF]4 [DG]2 [CA]4 [DA]2 | (B2 c2) [GB]2 [EA]4 [EA]2 | [Dd]4 [Fc]2 (B2 A2) [B,G]2 | %4
 [B,F]6- [B,F]4 [B,F]2 | [B,B]4 [CB]2 [DA]4 [FA]2 | [EG]4 [DG]2 [CF]4 [DF]2 | %7
 [DA]4 [DF]2 [DG]2 [CE]4 | D6- =D4 |] %9
V:2
 D2 | x12 | D4 x8 | x6 G4 x2 | x12 | x12 | x12 | x12 | D6 =D4 |] %9
V:3
 [D,F,]2 | [D,A,]4 [B,,G,]2 [A,,E,]4 [D,F,]2 | z2 [G,,B,]2 [A,,C]4 [G,C]2 x2 | %3
 [F,A,]4 [D,A,]2 [G,B,]4 [E,E]2 | [B,,D]6- [B,,D]4 [B,D]2 | [G,D]4 [E,G,]2 [F,A,]4 [D,B,]2 | %6
 (B,2 C2) [E,B,]2 [F,^A,]4 [B,,B,]2 | [F,,A,]4 [B,,B,]2 [G,,B,]2 (A,2 G,2) | [D,F,]6- [D,F,]4 |] %9
V:4
 x2 | x12 | (G,4 A,2) x6 | x12 | x12 | x12 | E,4 x8 | x8 A,,4 | x10 |] %9

